X:16
T: Esik az eső
O: Tornyospálca (Szabolcs-Szatmár), Bódi Károly "Kama" (57), 1953.05
M:4/4
L:1/4
Q: "Tempo guisto" 1/4=110
K: G
AD E/F/ G | B/B/A/G/ | F<D D z|
AA d<d | d/A/B/c/ | B<A A z | 
A<A d d | d/A/d/c/ | B/A/G/B/ A z | 
AD E/F/G | B/B/A/G/ | F<D D z | 

